images/ICONOS/CEGID/SELECCIÓN ICON.svg

<svg width="44" height="44" viewBox="0 0 44 44" fill="none" xmlns="http://www.w3.org/2000/svg">
<path d="M14.2382 34.7558C14.2382 35.2516 14.2382 35.6906 14.2382 36.1557C14.1241 36.164 14.0394 36.1746 13.9559 36.1746C10.531 36.1758 7.10732 36.1853 3.68245 36.1711C1.64305 36.1628 0.0799765 34.5297 0.132902 32.5026C0.181123 30.6838 1.67245 29.156 3.48368 29.0827C3.87886 29.0661 4.27404 29.0803 4.72802 29.0803C3.14849 21.5978 1.57718 14.1591 0 6.68963C3.60247 5.91807 7.14496 5.16071 10.7063 4.39743C10.7063 2.92886 10.7063 1.48159 10.7063 0C18.2311 0 25.7324 0 33.2785 0C33.2785 1.44254 33.2785 2.89809 33.2785 4.38559C36.8539 5.15124 40.394 5.90978 44 6.68134C43.8906 7.23161 43.7907 7.7594 43.6789 8.286C42.2017 15.262 40.7233 22.2368 39.252 29.214C39.2143 29.3915 39.2379 29.5951 39.2814 29.7749C40.8503 36.1687 37.0044 42.372 30.6098 43.7542C24.6786 45.0358 18.7463 41.1803 17.3549 35.125C17.2879 34.8315 17.1867 34.7439 16.8986 34.7499C16.0329 34.7676 15.1673 34.7558 14.2382 34.7558ZM31.8718 1.4165C25.2726 1.4165 18.711 1.4165 12.1482 1.4165C12.1482 10.6433 12.1482 19.8381 12.1482 29.0815C12.8503 29.0815 13.5313 29.0815 14.2605 29.0815C14.2605 29.5785 14.2605 30.0282 14.2605 30.4956C15.2191 30.4956 16.1294 30.5004 17.0397 30.4885C17.1303 30.4873 17.2749 30.4057 17.2996 30.3299C17.5831 29.4507 17.8465 28.5655 18.1288 27.6389C16.6186 27.6389 15.0862 27.6389 13.5619 27.6389C13.5619 24.0722 13.5619 20.5576 13.5619 17.0359C19.2073 17.0359 24.8268 17.0359 30.4734 17.0359C30.4734 17.2264 30.4734 17.3874 30.4734 17.5483C30.4734 18.7317 30.4687 19.915 30.4804 21.0984C30.4816 21.2357 30.544 21.4653 30.631 21.4949C31.0262 21.6286 31.4413 21.7067 31.8706 21.8096C31.8718 14.9957 31.8718 8.22328 31.8718 1.4165ZM33.3114 5.84825C33.3043 5.98197 33.2973 6.05415 33.2973 6.12634C33.2973 11.4492 33.2984 16.7708 33.2902 22.0936C33.2902 22.3611 33.3914 22.4794 33.6113 22.5954C35.4613 23.574 36.9256 24.9716 38.0218 26.7609C38.077 26.852 38.1453 26.9348 38.2593 27.0922C39.6295 20.6061 40.9809 14.2064 42.3381 7.77834C39.3002 7.12866 36.3317 6.49319 33.3114 5.84825ZM38.2358 32.615C38.2311 27.1419 33.7983 22.6865 28.3575 22.6865C22.9168 22.6865 18.484 27.1419 18.4781 32.6139C18.4722 38.1047 22.9203 42.5755 28.3787 42.5661C33.8148 42.5566 38.2417 38.0882 38.2358 32.615ZM14.9697 26.2355C16.2035 26.2355 17.4043 26.2236 18.6063 26.2437C18.9227 26.2485 19.1026 26.1396 19.2896 25.8899C21.1185 23.4439 23.5248 21.9256 26.5357 21.4345C27.3531 21.3008 28.1905 21.283 29.042 21.2097C29.042 20.3162 29.042 19.3932 29.042 18.4488C24.3434 18.4488 19.6672 18.4488 14.9697 18.4488C14.9697 21.0369 14.9697 23.6036 14.9697 26.2355ZM7.82476 14.2502C6.06057 13.0822 5.78301 11.2184 6.32755 9.84451C6.99677 8.15938 8.46222 7.45764 10.6969 7.75703C10.6969 7.13813 10.6969 6.52041 10.6969 5.85416C7.68362 6.49792 4.69274 7.13813 1.67363 7.78307C3.18024 14.9141 4.67392 21.9848 6.1676 29.059C6.66392 29.059 7.11673 29.059 7.60717 29.059C7.16613 26.9621 6.72979 24.8876 6.28403 22.7694C7.77418 22.4475 9.2314 22.1339 10.6851 21.8203C10.6851 21.3221 10.6851 20.8594 10.6851 20.3766C9.10673 20.7115 7.56248 21.0393 6.02411 21.367C5.15613 18.5991 5.49838 16.185 7.82476 14.2502ZM12.8139 30.5347C12.7468 30.5157 12.7198 30.5015 12.6927 30.5015C9.65363 30.4992 6.6157 30.479 3.5766 30.5205C3.14613 30.5264 2.66157 30.7583 2.30168 31.0222C1.58659 31.5465 1.36783 32.5026 1.66186 33.3357C1.95707 34.1735 2.74037 34.7499 3.65187 34.7522C6.64628 34.7605 9.6407 34.7546 12.6363 34.7534C12.6904 34.7534 12.7457 34.7357 12.8139 34.7238C12.8139 33.3215 12.8139 31.9393 12.8139 30.5347ZM10.6969 14.6147C8.24346 14.8111 6.46398 17.469 7.14025 19.6784C8.32108 19.4251 9.50426 19.1719 10.6969 18.9163C10.6969 17.4678 10.6969 16.0549 10.6969 14.6147ZM7.95531 23.8604C8.33049 25.6355 8.69274 27.3455 9.05263 29.0424C9.62893 29.0424 10.1629 29.0424 10.6886 29.0424C10.6886 27.1112 10.6886 25.213 10.6886 23.2758C9.77125 23.4711 8.8868 23.6604 7.95531 23.8604ZM10.7157 11.177C10.7157 10.8374 10.7157 10.4977 10.7157 10.1569C10.7157 9.28477 10.4746 9.03981 9.5913 9.03745C9.41723 9.03745 9.23964 9.06703 9.07027 9.10845C7.88944 9.39956 7.20847 10.6788 7.60365 11.8492C7.99059 12.9923 9.27845 13.5994 10.3464 13.1485C10.6004 13.042 10.7439 12.9071 10.7227 12.5935C10.6922 12.1237 10.7157 11.6492 10.7157 11.177ZM17.0538 33.3132C17.0538 32.8434 17.0538 32.3973 17.0538 31.9393C16.1129 31.9393 15.1979 31.9393 14.2699 31.9393C14.2699 32.4091 14.2699 32.8565 14.2699 33.3132C15.212 33.3132 16.1282 33.3132 17.0538 33.3132Z" fill="#1934EF"/>
<path d="M13.5735 15.5531C13.2901 12.6775 14.1569 10.4007 16.8231 8.99364C15.9763 8.13924 15.5435 7.13928 15.6788 5.94881C15.7846 5.01512 16.2068 4.23291 16.9278 3.62939C18.3568 2.43418 20.4362 2.55488 21.7229 3.89446C22.8084 5.02577 23.3106 7.15822 21.5535 8.99127C24.1963 10.3817 25.0795 12.6645 24.7925 15.5531C21.0678 15.5531 17.3312 15.5531 13.5735 15.5531ZM14.9672 14.1378C17.797 14.1378 20.5973 14.1378 23.3965 14.1378C23.4635 11.8823 21.5088 9.91904 19.2118 9.9072C16.8913 9.89419 14.9272 11.8337 14.9672 14.1378ZM21.2983 6.37482C21.3077 5.21275 20.3738 4.24593 19.2248 4.22581C18.051 4.20569 17.076 5.15831 17.0666 6.3334C17.0572 7.51205 18.0134 8.4836 19.1836 8.4836C20.3362 8.48242 21.2889 7.53216 21.2983 6.37482Z" fill="#1934EF"/>
<path d="M30.4548 2.83534C30.4548 3.30396 30.4548 3.74063 30.4548 4.20096C29.0611 4.20096 27.6862 4.20096 26.276 4.20096C26.276 3.76311 26.276 3.31461 26.276 2.83534C27.6485 2.83534 29.034 2.83534 30.4548 2.83534Z" fill="#1934EF"/>
<path d="M30.4652 5.67314C30.4652 6.14058 30.4652 6.56659 30.4652 7.02929C29.075 7.02929 27.6907 7.02929 26.2723 7.02929C26.2723 6.59736 26.2723 6.14886 26.2723 5.67314C27.6554 5.67314 29.0397 5.67314 30.4652 5.67314Z" fill="#1934EF"/>
<path d="M30.4548 8.51555C30.4548 8.98298 30.4548 9.42083 30.4548 9.88116C29.0611 9.88116 27.6862 9.88116 26.276 9.88116C26.276 9.4445 26.276 8.996 26.276 8.51555C27.6485 8.51555 29.0328 8.51555 30.4548 8.51555Z" fill="#1934EF"/>
<path d="M26.2582 12.713C26.2582 12.2491 26.2582 11.8113 26.2582 11.3497C27.6613 11.3497 29.0456 11.3497 30.4523 11.3497C30.4523 11.8053 30.4523 12.242 30.4523 12.713C29.068 12.713 27.6837 12.713 26.2582 12.713Z" fill="#1934EF"/>
<path d="M30.4548 14.1957C30.4548 14.6644 30.4548 15.101 30.4548 15.5614C29.0611 15.5614 27.6862 15.5614 26.276 15.5614C26.276 15.1235 26.276 14.675 26.276 14.1957C27.6485 14.1957 29.034 14.1957 30.4548 14.1957Z" fill="#1934EF"/>
<path d="M39.7812 13.0432C38.3734 12.7414 37.0432 12.4574 35.653 12.1604C35.7471 11.7012 35.8377 11.2634 35.9388 10.7723C37.3219 11.0681 38.6757 11.3569 40.0729 11.6551C39.9741 12.1296 39.8812 12.5674 39.7812 13.0432Z" fill="#1934EF"/>
<path d="M40.6585 8.87651C40.5586 9.35578 40.468 9.79363 40.3704 10.2658C38.9767 9.96759 37.6253 9.67766 36.2398 9.38063C36.3386 8.90846 36.4268 8.48245 36.528 7.99608C37.9111 8.29074 39.2613 8.5783 40.6585 8.87651Z" fill="#1934EF"/>
<path d="M34.1838 19.1033C35.5904 19.4062 36.9324 19.695 38.3073 19.9908C38.2097 20.463 38.1203 20.8902 38.0191 21.3742C36.6431 21.0807 35.2917 20.7931 33.8827 20.4926C33.9862 20.0157 34.0826 19.5695 34.1838 19.1033Z" fill="#1934EF"/>
<path d="M35.0557 14.9354C35.1628 14.4431 35.2557 14.0159 35.3568 13.5521C36.7388 13.8467 38.0913 14.1355 39.4874 14.4337C39.3862 14.907 39.2933 15.3449 39.1922 15.8206C37.802 15.5224 36.4483 15.2336 35.0557 14.9354Z" fill="#1934EF"/>
<path d="M38.8991 17.211C38.7968 17.6997 38.7074 18.1293 38.6086 18.6003C37.2208 18.3021 35.8659 18.011 34.4769 17.7128C34.5769 17.2382 34.6663 16.8122 34.7674 16.3294C36.1493 16.6252 37.4925 16.9116 38.8991 17.211Z" fill="#1934EF"/>
<path d="M28.3671 41.146C23.7014 41.1507 19.8932 37.3284 19.8896 32.6363C19.8861 27.9395 23.6814 24.1101 28.3471 24.1066C33.0152 24.1018 36.8211 27.9218 36.8258 32.615C36.8293 37.3095 33.0316 41.1413 28.3671 41.146ZM28.3824 25.5254C24.4977 25.5171 21.3174 28.6827 21.301 32.576C21.2845 36.506 24.4401 39.7153 28.3307 39.7248C32.2307 39.7342 35.4121 36.5474 35.4133 32.6281C35.4145 28.7253 32.2566 25.5349 28.3824 25.5254Z" fill="#1934EF"/>
<path d="M28.3753 28.3407C28.3753 27.8709 28.3753 27.433 28.3753 26.9976C30.1219 26.8224 32.7987 28.078 33.7173 30.84C34.5218 33.26 33.5021 36.1995 31.4533 37.332C31.2133 36.9675 30.971 36.6018 30.7135 36.2125C32.3918 34.854 33.0387 33.1582 32.2895 31.0755C31.712 29.4708 30.3747 28.5691 28.3753 28.3407Z" fill="#1934EF"/>
<path d="M29.9957 38.1024C29.4135 38.1888 28.916 38.2621 28.3821 38.3414C28.3821 37.829 28.3821 37.3805 28.3821 36.9214C28.7737 36.861 29.1572 36.803 29.5817 36.7379C29.7099 37.158 29.8393 37.5864 29.9957 38.1024Z" fill="#1934EF"/>
</svg>

<svg width="44" height="44" fill="none" xmlns="http://www.w3.org/2000/svg"><path d="M14.238 34.756v1.4c-.114.008-.199.019-.282.019-3.425 0-6.849.01-10.274-.004C1.643 36.163.08 34.53.132 32.503c.05-1.82 1.54-3.347 3.352-3.42.395-.017.79-.003 1.244-.003L0 6.69l10.706-2.293V0H33.28v4.386L44 6.68c-.11.55-.21 1.078-.321 1.605-1.477 6.976-2.956 13.95-4.427 20.928-.038.178-.014.381.03.56 1.568 6.395-2.278 12.598-8.672 13.98-5.931 1.282-11.864-2.574-13.255-8.629-.067-.294-.168-.381-.456-.375-.866.018-1.732.006-2.66.006Zm17.634-33.34H12.148v27.665h2.113v1.415c.958 0 1.868.004 2.779-.008.09 0 .235-.082.26-.158.283-.88.546-1.764.829-2.691h-4.567V17.036h16.911v.512c0 1.184-.004 2.367.007 3.55.002.138.064.367.151.397.395.134.81.212 1.24.315V1.417Zm1.44 4.432c-.008.134-.015.206-.015.278 0 5.323.001 10.645-.007 15.968 0 .267.101.385.321.501 1.85.979 3.315 2.377 4.41 4.166.056.091.124.174.238.331l4.08-19.314-9.028-1.93Zm4.924 26.767c-.005-5.473-4.438-9.929-9.878-9.929-5.441 0-9.874 4.456-9.88 9.928-.006 5.49 4.442 9.962 9.9 9.952 5.437-.01 9.864-4.478 9.858-9.951Zm-23.266-6.38c1.233 0 2.434-.011 3.636.009.317.005.497-.104.684-.354 1.829-2.446 4.235-3.964 7.246-4.456.817-.133 1.654-.151 2.506-.224v-2.761H14.97v7.786ZM7.825 14.25c-1.764-1.168-2.042-3.032-1.497-4.405.669-1.686 2.134-2.387 4.369-2.088V5.854l-9.023 1.93 4.494 21.275h1.44l-1.324-6.29 4.401-.949v-1.443c-1.578.335-3.123.662-4.66.99-.869-2.768-.527-5.182 1.8-7.117Zm4.989 16.285c-.067-.02-.094-.034-.121-.034-3.04-.002-6.077-.022-9.116.02-.43.005-.915.237-1.275.501-.715.525-.934 1.48-.64 2.314a2.11 2.11 0 0 0 1.99 1.416c2.994.008 5.989.003 8.984.001.054 0 .11-.017.178-.03v-4.188Zm-2.117-15.92c-2.454.196-4.233 2.854-3.557 5.063l3.557-.762v-4.301ZM7.955 23.86c.375 1.776.738 3.486 1.098 5.182h1.636v-5.766c-.918.195-1.802.384-2.734.584Zm2.76-12.683v-1.02c0-.872-.24-1.117-1.124-1.12-.174 0-.351.03-.52.071-1.182.292-1.863 1.57-1.467 2.741.387 1.143 1.674 1.75 2.742 1.3.254-.107.398-.242.377-.555-.03-.47-.007-.945-.007-1.417Zm6.339 22.136V31.94H14.27v1.374h2.784Z" fill="#1934EF"/><path d="M13.573 15.553c-.283-2.876.584-5.152 3.25-6.56-.847-.854-1.28-1.854-1.144-3.044a3.444 3.444 0 0 1 1.249-2.32 3.504 3.504 0 0 1 4.795.265c1.085 1.132 1.588 3.264-.17 5.097 2.643 1.39 3.526 3.674 3.24 6.562h-11.22Zm1.394-1.415h8.43c.067-2.256-1.888-4.219-4.185-4.23-2.32-.014-4.285 1.926-4.245 4.23Zm6.331-7.763c.01-1.162-.924-2.13-2.073-2.15a2.13 2.13 0 0 0-2.158 2.108c-.01 1.18.946 2.15 2.117 2.15a2.133 2.133 0 0 0 2.114-2.108ZM30.455 2.835v1.366h-4.179V2.835h4.179ZM30.465 5.673V7.03h-4.193V5.673h4.193ZM30.455 8.516V9.88h-4.179V8.516h4.179ZM26.258 12.713V11.35h4.194v1.363h-4.194ZM30.455 14.196v1.365h-4.179v-1.365h4.179ZM39.781 13.043l-4.128-.883.286-1.388 4.134.883-.292 1.388ZM40.658 8.877l-.288 1.389-4.13-.885.288-1.385 4.13.88ZM34.184 19.103l4.123.888c-.097.472-.187.9-.288 1.383l-4.136-.881.3-1.39ZM35.056 14.935l.3-1.383 4.131.882-.295 1.387c-1.39-.299-2.744-.587-4.136-.886ZM38.9 17.211l-.291 1.39-4.132-.888c.1-.475.19-.9.29-1.384 1.382.296 2.725.583 4.132.882ZM28.367 41.146c-4.666.005-8.474-3.818-8.477-8.51-.004-4.697 3.791-8.526 8.457-8.53 4.668-.004 8.474 3.816 8.479 8.509.003 4.694-3.794 8.526-8.459 8.531Zm.015-15.62c-3.884-.009-7.065 3.157-7.081 7.05-.016 3.93 3.14 7.14 7.03 7.149 3.9.01 7.081-3.178 7.082-7.097.002-3.903-3.156-7.093-7.03-7.103Z" fill="#1934EF"/><path d="M28.375 28.34v-1.342c1.747-.176 4.424 1.08 5.342 3.842.805 2.42-.215 5.36-2.264 6.492l-.74-1.12c1.679-1.358 2.326-3.054 1.576-5.137-.577-1.604-1.914-2.506-3.914-2.734ZM29.996 38.102l-1.614.24v-1.42l1.2-.184.414 1.364Z" fill="#1934EF"/></svg>
